contributed-vectors/halo_icon.svg

<svg width="192" height="192" version="1.1" viewBox="0 0 192 192" xmlns="http://www.w3.org/2000/svg" xmlns:xlink="http://www.w3.org/1999/xlink">
 <defs>
  <linearGradient id="linearGradient904" x1="128" x2="128" y1="52" y2="84" gradientUnits="userSpaceOnUse">
   <stop style="stop-color:#ff837d" offset="0"/>
   <stop style="stop-color:#f9de81" offset="1"/>
  </linearGradient>
 </defs>
 <circle cx="96" cy="96" r="88" opacity=".63" style="fill:#96dfd3;opacity:1"/>
 <path d="m158.19 33.812-62.188 62.188 62.188 62.188a88 88 0 0 0 25.812-62.188 88 88 0 0 0-25.812-62.188z" style="fill:#d6c8ba"/>
 <circle cx="96" cy="96" r="36.5" opacity=".63" style="fill:none;stroke-width:1.0002;stroke:#b1b5bd"/>
 <circle cx="96" cy="96" r="56" style="fill:#e0f4e0;paint-order:stroke fill markers"/>
 <path d="m96 96v56a56 56 0 0 0 56-56h-56z" style="fill:#54688c;paint-order:stroke fill markers"/>
 <path d="m40 96a56 56 0 0 0 56 56v-56h-56z" style="fill:#728dbe;paint-order:stroke fill markers"/>
 <circle cx="96" cy="96" r="36.5" style="fill:#728dbe;opacity:.25"/>
 <path d="m96 96v36h5.9453a36.5 36.5 0 0 0 30.055-30.256v-5.7441h-36z" style="fill:#9abeff;paint-order:stroke fill markers"/>
 <path d="m135.57 56.426-39.574 39.574h56a56 56 0 0 0-16.426-39.574z" style="fill:#f1e9e0"/>
 <circle cx="96" cy="96" r="16" style="fill:#fff;paint-order:stroke fill markers"/>
 <path d="m60 96v5.9453a36.5 36.5 0 0 0 30.256 30.055h5.7441v-36h-36z" style="fill:#54688c;paint-order:stroke fill markers"/>
 <path d="m84.693 84.693a16 16 0 0 0-4.6934 11.307 16 16 0 0 0 16 16 16 16 0 0 0 11.307-4.6934l-22.613-22.613z" style="fill:#d8d8d8"/>
 <path d="m96 96-4 68 4 20a88 88 0 0 0 62.188-25.812l-62.188-62.188z" style="fill:#f9de81"/>
 <path d="m96 96-62.188 62.188a88 88 0 0 0 62.188 25.812v-88z" style="fill:#ff837d"/>
 <circle cx="124" cy="68" r="16" style="fill:url(#linearGradient904);paint-order:stroke fill markers"/>
 <circle cx="124" cy="68" r="12" style="fill:#f8c18c;paint-order:stroke fill markers"/>
</svg>

<svg xmlns="http://www.w3.org/2000/svg" width="192" height="192"><defs><linearGradient id="a" x1="128" x2="128" y1="52" y2="84" gradientUnits="userSpaceOnUse"><stop offset="0" style="stop-color:#ff837d"/><stop offset="1" style="stop-color:#f9de81"/></linearGradient></defs><circle cx="96" cy="96" r="88" opacity=".63" style="fill:#96dfd3;opacity:1"/><path d="M158.19 33.812 96.002 96l62.188 62.188A88 88 0 0 0 184.002 96a88 88 0 0 0-25.812-62.188z" style="fill:#d6c8ba"/><circle cx="96" cy="96" r="36.5" opacity=".63" style="fill:none;stroke-width:1.0002;stroke:#b1b5bd"/><circle cx="96" cy="96" r="56" style="fill:#e0f4e0;paint-order:stroke fill markers"/><path d="M96 96v56a56 56 0 0 0 56-56H96z" style="fill:#54688c;paint-order:stroke fill markers"/><path d="M40 96a56 56 0 0 0 56 56V96H40z" style="fill:#728dbe;paint-order:stroke fill markers"/><circle cx="96" cy="96" r="36.5" style="fill:#728dbe;opacity:.25"/><path d="M96 96v36h5.945A36.5 36.5 0 0 0 132 101.744V96H96z" style="fill:#9abeff;paint-order:stroke fill markers"/><path d="M135.57 56.426 95.996 96h56a56 56 0 0 0-16.426-39.574z" style="fill:#f1e9e0"/><circle cx="96" cy="96" r="16" style="fill:#fff;paint-order:stroke fill markers"/><path d="M60 96v5.945A36.5 36.5 0 0 0 90.256 132H96V96H60z" style="fill:#54688c;paint-order:stroke fill markers"/><path d="M84.693 84.693A16 16 0 0 0 80 96a16 16 0 0 0 16 16 16 16 0 0 0 11.307-4.693L84.694 84.694z" style="fill:#d8d8d8"/><path d="m96 96-4 68 4 20a88 88 0 0 0 62.188-25.812L96 96z" style="fill:#f9de81"/><path d="m96 96-62.188 62.188A88 88 0 0 0 96 184V96z" style="fill:#ff837d"/><circle cx="124" cy="68" r="16" style="fill:url(#a);paint-order:stroke fill markers"/><circle cx="124" cy="68" r="12" style="fill:#f8c18c;paint-order:stroke fill markers"/></svg>
